Newaita-dark/devices/64/media-memory-sd.svg

<svg height="64pt" viewBox="0 0 64 64" width="64pt" xmlns="http://www.w3.org/2000/svg" xmlns:xlink="http://www.w3.org/1999/xlink"><linearGradient id="a" gradientUnits="userSpaceOnUse" x1="31.753043" x2="31.753043" y1="55.96441" y2="58.61049775004"><stop offset="0" stop-opacity=".27451"/><stop offset="1" stop-opacity="0"/></linearGradient><linearGradient id="b"><stop offset="0" stop-opacity=".313725"/><stop offset=".222222" stop-opacity=".27451"/><stop offset="1" stop-opacity="0"/></linearGradient><radialGradient id="c" cx="450.90894" cy="189.57936" gradientTransform="matrix(.00000035 -.156265 -.281277 -.0000002 100.953687 127.087208)" gradientUnits="userSpaceOnUse" r="21.166656" xlink:href="#b"/><radialGradient id="d" cx="450.90894" cy="189.57936" gradientTransform="matrix(-.00000035 .156265 .281277 .0000002 -37.447624 -15.158419)" gradientUnits="userSpaceOnUse" r="21.166656" xlink:href="#b"/><radialGradient id="e" cx="450.90894" cy="189.57936" gradientTransform="matrix(-.00000035 -.156265 .281277 -.0000002 -37.447624 127.087208)" gradientUnits="userSpaceOnUse" r="21.166656" xlink:href="#b"/><radialGradient id="f" cx="450.90894" cy="189.57936" gradientTransform="matrix(.00000035 .156265 -.281277 .0000002 100.953683 -15.15842)" gradientUnits="userSpaceOnUse" r="21.166656" xlink:href="#b"/><linearGradient id="g" gradientUnits="userSpaceOnUse" x1="31.753048" x2="31.753048" y1="61.36004350008" y2=".500034"><stop offset="0" stop-color="#424242"/><stop offset="1" stop-color="#616161"/></linearGradient><linearGradient id="h" gradientUnits="userSpaceOnUse" x1="31.753048" x2="31.753048" y1="56.067868" y2="5.79220824996"><stop offset="0" stop-color="#26a69a"/><stop offset="1" stop-color="#4db6ac"/></linearGradient><linearGradient id="i" gradientUnits="userSpaceOnUse" x1="31.753056" x2="31.753056" y1="56.06789909502" y2="9.76135578741"><stop offset="0" stop-color="#f44336"/><stop offset="1" stop-color="#ef5350"/></linearGradient><path d="m15.214844 56.011719h33.078125v2.703125h-33.078125zm0 0" fill="url(#a)"/><path d="m48.292969 55.964844h5.289062v-2.648438h-5.289062zm0 0" fill="url(#c)"/><path d="m15.214844 55.964844h-5.292969v2.644531h5.292969zm0 0" fill="url(#d)"/><path d="m15.214844 55.964844h-5.292969v-2.648438h5.292969zm0 0" fill="url(#e)"/><path d="m48.292969 55.964844h5.289062v2.644531h-5.289062zm0 0" fill="url(#f)"/><path d="m23.816406 5.804688c-.699218 0-1.371094.277343-1.863281.769531l-10.585937 10.585937c-.492188.492188-.769532 1.164063-.769532 1.863282v1.320312h1.308594c.734375 0 1.324219.59375 1.324219 1.324219v3.96875c0 .734375-.589844 1.324219-1.324219 1.324219h-1.308594v26.460937c0 1.453125 1.179688 2.632813 2.632813 2.632813h37.046875c1.453125 0 2.632812-1.179688 2.632812-2.632813v-18.523437h-1.3125c-.730468 0-1.320312-.589844-1.320312-1.324219v-14.550781c0-.734376.589844-1.324219 1.320312-1.324219h1.3125v-9.261719c0-1.453125-1.179687-2.632812-2.632812-2.632812zm0 0" fill="url(#g)"/><path d="m10.597656 52.53125v.890625c0 1.453125 1.179688 2.632813 2.632813 2.632813h37.046875c1.453125 0 2.632812-1.179688 2.632812-2.632813v-.890625c0 1.453125-1.179687 2.632812-2.632812 2.632812h-37.046875c-1.453125 0-2.632813-1.179687-2.632813-2.632812zm0 0" fill-opacity=".235294"/><path d="m26.460938 9.773438c-.699219 0-1.367188.277343-1.863282.773437l-7.9375 7.9375c-.492187.492187-.769531 1.164063-.769531 1.859375v29.109375c0 1.453125 1.175781 2.632813 2.632813 2.632813h26.460937c1.453125 0 2.632813-1.179688 2.632813-2.632813v-37.046875c0-1.453125-1.179688-2.632812-2.632813-2.632812zm0 0" fill="url(#h)"/><path d="m26.460938 9.773438c-.699219 0-1.367188.277343-1.863282.773437l-7.9375 7.9375c-.492187.492187-.769531 1.164063-.769531 1.859375v3.972656h31.726563v-11.910156c0-1.453125-1.179688-2.632812-2.632813-2.632812zm0 0" fill="url(#i)"/><path d="m211.667287-136.819966c-5.593216 0-10.936456 2.218538-14.904827 6.186909l-63.493937 63.493937c-3.937124 3.937124-6.155662 9.311611-6.155662 14.87358v232.852763c0 11.62389 9.405352 21.060489 21.060489 21.060489h211.667287c11.62389 0 21.060489-9.436599 21.060489-21.060489v-296.3467c0-11.62389-9.436599-21.060489-21.060489-21.060489zm0 0" fill="none" stroke="#212121" stroke-linecap="round" stroke-linejoin="round" stroke-width="3" transform="matrix(.125012 0 0 .125012 0 26.877566)"/><path d="m23.816406 5.804688c-.699218 0-1.371094.277343-1.863281.769531l-10.585937 10.585937c-.492188.492188-.769532 1.164063-.769532 1.863282v.660156c0-.699219.277344-1.367188.769532-1.863282l10.585937-10.582031c.492187-.496093 1.164063-.773437 1.863281-.773437h26.460938c1.453125 0 2.632812 1.179687 2.632812 2.636718v-.664062c0-1.453125-1.179687-2.632812-2.632812-2.632812zm-10.585937 19.832031c0 .734375-.589844 1.324219-1.324219 1.324219h-1.308594v.660156h1.308594c.734375 0 1.324219-.589844 1.324219-1.320313zm37.046875 7.9375v.664062c0 .730469.589844 1.324219 1.320312 1.324219h1.3125v-.664062h-1.3125c-.730468 0-1.320312-.589844-1.320312-1.324219zm0 0" fill="#fff" fill-opacity=".313725"/><g fill="none" stroke="#212121" stroke-linecap="round" stroke-linejoin="round" stroke-width="11.338583" transform="scale(.0330761)"><path d="m720.049358 175.495054c-21.139714 0-41.452735 8.385026-56.333204 23.265495l-320.048181 320.048181c-14.880469 14.880469-23.265495 35.193491-23.265495 56.333204v39.917449h39.563152c22.202604 0 40.035547 17.951042 40.035547 40.035547v119.988543c0 22.202605-17.832943 40.035548-40.035547 40.035548h-39.563152v800.002354c0 43.932813 35.665886 79.598698 79.598699 79.598698h1120.050535c43.932813 0 79.598699-35.665885 79.598699-79.598698v-560.025268h-39.681251c-22.084505 0-39.917448-17.832943-39.917448-40.035547v-439.918626c0-22.202604 17.832943-40.035547 39.917448-40.035547h39.681251v-280.012634c0-43.932813-35.665886-79.598699-79.598699-79.598699zm0 0"/><path d="m800.002354 295.483597c-21.139714 0-41.334636 8.385027-56.333204 23.383595l-239.977086 239.977086c-14.880469 14.880469-23.265495 35.19349-23.265495 56.215105v120.106642h959.199751v-360.083729c0-43.932813-35.665886-79.598699-79.598699-79.598699zm0 0"/></g></svg>

<?xml version="1.0" encoding="UTF-8"?>
<svg xmlns="http://www.w3.org/2000/svg" xmlns:xlink="http://www.w3.org/1999/xlink" width="64pt" height="64pt" viewBox="0 0 64 64" version="1.1">
<defs>
<linearGradient id="linear0" gradientUnits="userSpaceOnUse" x1="254" y1="233.5" x2="254" y2="254.66667" gradientTransform="matrix(0.125012,0,0,0.125012,-0.00000500048,26.774108)">
<stop offset="0" style="stop-color:rgb(0%,0%,0%);stop-opacity:0.27451;"/>
<stop offset="1" style="stop-color:rgb(0%,0%,0%);stop-opacity:0;"/>
</linearGradient>
<radialGradient id="radial0" gradientUnits="userSpaceOnUse" cx="450.90894" cy="189.57936" fx="450.90894" fy="189.57936" r="21.166656" gradientTransform="matrix(0.000000348341,-0.156265,-0.281277,-0.000000203077,100.953687,127.087208)">
<stop offset="0" style="stop-color:rgb(0%,0%,0%);stop-opacity:0.313725;"/>
<stop offset="0.222222" style="stop-color:rgb(0%,0%,0%);stop-opacity:0.27451;"/>
<stop offset="1" style="stop-color:rgb(0%,0%,0%);stop-opacity:0;"/>
</radialGradient>
<radialGradient id="radial1" gradientUnits="userSpaceOnUse" cx="450.90894" cy="189.57936" fx="450.90894" fy="189.57936" r="21.166656" gradientTransform="matrix(-0.000000348341,0.156265,0.281277,0.000000203077,-37.447624,-15.158419)">
<stop offset="0" style="stop-color:rgb(0%,0%,0%);stop-opacity:0.313725;"/>
<stop offset="0.222222" style="stop-color:rgb(0%,0%,0%);stop-opacity:0.27451;"/>
<stop offset="1" style="stop-color:rgb(0%,0%,0%);stop-opacity:0;"/>
</radialGradient>
<radialGradient id="radial2" gradientUnits="userSpaceOnUse" cx="450.90894" cy="189.57936" fx="450.90894" fy="189.57936" r="21.166656" gradientTransform="matrix(-0.000000348341,-0.156265,0.281277,-0.000000203077,-37.447624,127.087208)">
<stop offset="0" style="stop-color:rgb(0%,0%,0%);stop-opacity:0.313725;"/>
<stop offset="0.222222" style="stop-color:rgb(0%,0%,0%);stop-opacity:0.27451;"/>
<stop offset="1" style="stop-color:rgb(0%,0%,0%);stop-opacity:0;"/>
</radialGradient>
<radialGradient id="radial3" gradientUnits="userSpaceOnUse" cx="450.90894" cy="189.57936" fx="450.90894" fy="189.57936" r="21.166656" gradientTransform="matrix(0.000000348341,0.156265,-0.281277,0.000000203077,100.953683,-15.15842)">
<stop offset="0" style="stop-color:rgb(0%,0%,0%);stop-opacity:0.313725;"/>
<stop offset="0.222222" style="stop-color:rgb(0%,0%,0%);stop-opacity:0.27451;"/>
<stop offset="1" style="stop-color:rgb(0%,0%,0%);stop-opacity:0;"/>
</radialGradient>
<linearGradient id="linear1" gradientUnits="userSpaceOnUse" x1="254" y1="275.83334" x2="254" y2="-211" gradientTransform="matrix(0.125012,0,0,0.125012,0,26.877566)">
<stop offset="0" style="stop-color:rgb(25.882353%,25.882353%,25.882353%);stop-opacity:1;"/>
<stop offset="1" style="stop-color:rgb(38.039216%,38.039216%,38.039216%);stop-opacity:1;"/>
</linearGradient>
<linearGradient id="linear2" gradientUnits="userSpaceOnUse" x1="254" y1="233.5" x2="254" y2="-168.66667" gradientTransform="matrix(0.125012,0,0,0.125012,0,26.877566)">
<stop offset="0" style="stop-color:rgb(14.901961%,65.098039%,60.392157%);stop-opacity:1;"/>
<stop offset="1" style="stop-color:rgb(30.196078%,71.372549%,67.45098%);stop-opacity:1;"/>
</linearGradient>
<linearGradient id="linear3" gradientUnits="userSpaceOnUse" x1="960" y1="1695.1182" x2="960" y2="295.1181" gradientTransform="matrix(0.0330761,0,0,0.0330761,0,0)">
<stop offset="0" style="stop-color:rgb(95.686275%,26.27451%,21.176471%);stop-opacity:1;"/>
<stop offset="1" style="stop-color:rgb(93.72549%,32.54902%,31.372549%);stop-opacity:1;"/>
</linearGradient>
</defs>
<g id="surface1">
<path style=" stroke:none;fill-rule:nonzero;fill:url(#linear0);" d="M 15.214844 56.011719 L 48.292969 56.011719 L 48.292969 58.714844 L 15.214844 58.714844 Z M 15.214844 56.011719 "/>
<path style=" stroke:none;fill-rule:nonzero;fill:url(#radial0);" d="M 48.292969 55.964844 L 53.582031 55.964844 L 53.582031 53.316406 L 48.292969 53.316406 Z M 48.292969 55.964844 "/>
<path style=" stroke:none;fill-rule:nonzero;fill:url(#radial1);" d="M 15.214844 55.964844 L 9.921875 55.964844 L 9.921875 58.609375 L 15.214844 58.609375 Z M 15.214844 55.964844 "/>
<path style=" stroke:none;fill-rule:nonzero;fill:url(#radial2);" d="M 15.214844 55.964844 L 9.921875 55.964844 L 9.921875 53.316406 L 15.214844 53.316406 Z M 15.214844 55.964844 "/>
<path style=" stroke:none;fill-rule:nonzero;fill:url(#radial3);" d="M 48.292969 55.964844 L 53.582031 55.964844 L 53.582031 58.609375 L 48.292969 58.609375 Z M 48.292969 55.964844 "/>
<path style=" stroke:none;fill-rule:nonzero;fill:url(#linear1);" d="M 23.816406 5.804688 C 23.117188 5.804688 22.445312 6.082031 21.953125 6.574219 L 11.367188 17.160156 C 10.875 17.652344 10.597656 18.324219 10.597656 19.023438 L 10.597656 20.34375 L 11.90625 20.34375 C 12.640625 20.34375 13.230469 20.9375 13.230469 21.667969 L 13.230469 25.636719 C 13.230469 26.371094 12.640625 26.960938 11.90625 26.960938 L 10.597656 26.960938 L 10.597656 53.421875 C 10.597656 54.875 11.777344 56.054688 13.230469 56.054688 L 50.277344 56.054688 C 51.730469 56.054688 52.910156 54.875 52.910156 53.421875 L 52.910156 34.898438 L 51.597656 34.898438 C 50.867188 34.898438 50.277344 34.308594 50.277344 33.574219 L 50.277344 19.023438 C 50.277344 18.289062 50.867188 17.699219 51.597656 17.699219 L 52.910156 17.699219 L 52.910156 8.4375 C 52.910156 6.984375 51.730469 5.804688 50.277344 5.804688 Z M 23.816406 5.804688 "/>
<path style=" stroke:none;fill-rule:nonzero;fill:rgb(0%,0%,0%);fill-opacity:0.235294;" d="M 10.597656 52.53125 L 10.597656 53.421875 C 10.597656 54.875 11.777344 56.054688 13.230469 56.054688 L 50.277344 56.054688 C 51.730469 56.054688 52.910156 54.875 52.910156 53.421875 L 52.910156 52.53125 C 52.910156 53.984375 51.730469 55.164062 50.277344 55.164062 L 13.230469 55.164062 C 11.777344 55.164062 10.597656 53.984375 10.597656 52.53125 Z M 10.597656 52.53125 "/>
<path style=" stroke:none;fill-rule:nonzero;fill:url(#linear2);" d="M 26.460938 9.773438 C 25.761719 9.773438 25.09375 10.050781 24.597656 10.546875 L 16.660156 18.484375 C 16.167969 18.976562 15.890625 19.648438 15.890625 20.34375 L 15.890625 49.453125 C 15.890625 50.90625 17.066406 52.085938 18.523438 52.085938 L 44.984375 52.085938 C 46.4375 52.085938 47.617188 50.90625 47.617188 49.453125 L 47.617188 12.40625 C 47.617188 10.953125 46.4375 9.773438 44.984375 9.773438 Z M 26.460938 9.773438 "/>
<path style=" stroke:none;fill-rule:nonzero;fill:url(#linear3);" d="M 26.460938 9.773438 C 25.761719 9.773438 25.09375 10.050781 24.597656 10.546875 L 16.660156 18.484375 C 16.167969 18.976562 15.890625 19.648438 15.890625 20.34375 L 15.890625 24.316406 L 47.617188 24.316406 L 47.617188 12.40625 C 47.617188 10.953125 46.4375 9.773438 44.984375 9.773438 Z M 26.460938 9.773438 "/>
<path style="fill:none;stroke-width:3;stroke-linecap:round;stroke-linejoin:round;stroke:rgb(12.941176%,12.941176%,12.941176%);stroke-opacity:1;stroke-miterlimit:4;" d="M 211.667287 -136.819966 C 206.074071 -136.819966 200.730831 -134.601428 196.76246 -130.633057 L 133.268523 -67.13912 C 129.331399 -63.201996 127.112861 -57.827509 127.112861 -52.26554 L 127.112861 180.587223 C 127.112861 192.211113 136.518213 201.647712 148.17335 201.647712 L 359.840637 201.647712 C 371.464527 201.647712 380.901126 192.211113 380.901126 180.587223 L 380.901126 -115.759477 C 380.901126 -127.383367 371.464527 -136.819966 359.840637 -136.819966 Z M 211.667287 -136.819966 " transform="matrix(0.125012,0,0,0.125012,0,26.877566)"/>
<path style=" stroke:none;fill-rule:nonzero;fill:rgb(100%,100%,100%);fill-opacity:0.313725;" d="M 23.816406 5.804688 C 23.117188 5.804688 22.445312 6.082031 21.953125 6.574219 L 11.367188 17.160156 C 10.875 17.652344 10.597656 18.324219 10.597656 19.023438 L 10.597656 19.683594 C 10.597656 18.984375 10.875 18.316406 11.367188 17.820312 L 21.953125 7.238281 C 22.445312 6.742188 23.117188 6.464844 23.816406 6.464844 L 50.277344 6.464844 C 51.730469 6.464844 52.910156 7.644531 52.910156 9.101562 L 52.910156 8.4375 C 52.910156 6.984375 51.730469 5.804688 50.277344 5.804688 Z M 13.230469 25.636719 C 13.230469 26.371094 12.640625 26.960938 11.90625 26.960938 L 10.597656 26.960938 L 10.597656 27.621094 L 11.90625 27.621094 C 12.640625 27.621094 13.230469 27.03125 13.230469 26.300781 Z M 50.277344 33.574219 L 50.277344 34.238281 C 50.277344 34.96875 50.867188 35.5625 51.597656 35.5625 L 52.910156 35.5625 L 52.910156 34.898438 L 51.597656 34.898438 C 50.867188 34.898438 50.277344 34.308594 50.277344 33.574219 Z M 50.277344 33.574219 "/>
<path style="fill:none;stroke-width:11.338583;stroke-linecap:round;stroke-linejoin:round;stroke:rgb(12.941176%,12.941176%,12.941176%);stroke-opacity:1;stroke-miterlimit:4;" d="M 720.049358 175.495054 C 698.909644 175.495054 678.596623 183.88008 663.716154 198.760549 L 343.667973 518.80873 C 328.787504 533.689199 320.402478 554.002221 320.402478 575.141934 L 320.402478 615.059383 L 359.96563 615.059383 C 382.168234 615.059383 400.001177 633.010425 400.001177 655.09493 L 400.001177 775.083473 C 400.001177 797.286078 382.168234 815.119021 359.96563 815.119021 L 320.402478 815.119021 L 320.402478 1615.121375 C 320.402478 1659.054188 356.068364 1694.720073 400.001177 1694.720073 L 1520.051712 1694.720073 C 1563.984525 1694.720073 1599.650411 1659.054188 1599.650411 1615.121375 L 1599.650411 1055.096107 L 1559.96916 1055.096107 C 1537.884655 1055.096107 1520.051712 1037.263164 1520.051712 1015.06056 L 1520.051712 575.141934 C 1520.051712 552.93933 1537.884655 535.106387 1559.96916 535.106387 L 1599.650411 535.106387 L 1599.650411 255.093753 C 1599.650411 211.16094 1563.984525 175.495054 1520.051712 175.495054 Z M 720.049358 175.495054 " transform="matrix(0.0330761,0,0,0.0330761,0,0)"/>
<path style="fill:none;stroke-width:11.338583;stroke-linecap:round;stroke-linejoin:round;stroke:rgb(12.941176%,12.941176%,12.941176%);stroke-opacity:1;stroke-miterlimit:4;" d="M 800.002354 295.483597 C 778.86264 295.483597 758.667718 303.868624 743.66915 318.867192 L 503.692064 558.844278 C 488.811595 573.724747 480.426569 594.037768 480.426569 615.059383 L 480.426569 735.166025 L 1439.62632 735.166025 L 1439.62632 375.082296 C 1439.62632 331.149483 1403.960434 295.483597 1360.027621 295.483597 Z M 800.002354 295.483597 " transform="matrix(0.0330761,0,0,0.0330761,0,0)"/>
</g>
</svg>
